Sources/FrostedUI/Resources/Icons.xcassets/unpinFilled32.imageset/unpin-filled-32.svg

<svg width="32" height="32" viewBox="0 0 32 32" fill="none" xmlns="http://www.w3.org/2000/svg" data-fui-icon="true">
  <path
    d="M1.21997 1.21973C1.51288 0.926965 1.98767 0.926878 2.28052 1.21973L30.7805 29.7197C31.0732 30.0126 31.0732 30.4874 30.7805 30.7803C30.4877 31.0731 30.0129 31.073 29.72 30.7803L23.0276 24.0879C22.9713 24.0316 22.895 24 22.8154 24H17.0493C16.8836 24 16.7493 24.1343 16.7493 24.3V30.25C16.7493 30.6642 16.4134 31 15.9993 31C15.5854 30.9996 15.2493 30.664 15.2493 30.25V24.3C15.2493 24.1343 15.115 24 14.9493 24H8.69556C5.95711 23.9992 4.14192 21.1577 5.29321 18.6729L7.77173 13.3252C7.92128 13.0025 7.99922 12.6506 7.99927 12.2949V9.18383C7.99927 9.10427 7.96766 9.02796 7.9114 8.9717L1.21997 2.28027C0.927078 1.98738 0.927078 1.51262 1.21997 1.21973ZM20.2493 1C22.3203 1 23.9993 2.67893 23.9993 4.75V12.2949C23.9993 12.6505 24.0773 13.0026 24.2268 13.3252L26.7053 18.6729C27.3616 20.089 27.0532 21.6195 26.1607 22.6753C26.0534 22.8022 25.8617 22.8019 25.7442 22.6844L8.08714 5.02732C8.03087 4.97106 7.99927 4.89475 7.99927 4.81519V4.75C7.99927 2.67919 9.67856 1.00042 11.7493 1H20.2493Z"
    fill="currentColor"
  />
</svg>

<svg xmlns="http://www.w3.org/2000/svg" width="32" height="32" fill="none" data-fui-icon="true" viewBox="0 0 32 32"><path fill="currentColor" d="M1.22 1.22a.75.75 0 0 1 1.06 0l28.5 28.5a.75.75 0 0 1-1.06 1.06l-6.692-6.692a.3.3 0 0 0-.213-.088H17.05a.3.3 0 0 0-.3.3v5.95a.75.75 0 0 1-1.5 0V24.3a.3.3 0 0 0-.3-.3H8.696c-2.739 0-4.554-2.842-3.403-5.327l2.479-5.348c.15-.322.227-.674.227-1.03V9.184a.3.3 0 0 0-.088-.212L1.22 2.28a.75.75 0 0 1 0-1.06M20.25 1A3.75 3.75 0 0 1 24 4.75v7.545c0 .355.077.708.227 1.03l2.478 5.348c.657 1.416.348 2.947-.544 4.002a.28.28 0 0 1-.417.01L8.087 5.026A.3.3 0 0 1 8 4.815V4.75A3.75 3.75 0 0 1 11.75 1z"/></svg>
